!!!COM: Johannes Brahms
!!!CNT: Deutscher
!!!TXO: Deutsche
!!!OTL: So stehn wir, ich und meine Weide
!!!OPS: Op. 32
!!!ONM: No. 8
!!!LYR: Nach Hafis von Daumer
!!!ONB: Original key: Ab Major
!!!ENC: Ayako Kataoka        
!!!EED: Leigh VanHandel
!!!YOR: C.F. Peters, Brahms Lieder fu2r eine Singstimme mit Klavierbegleitung, Band III, ausgabe fu2r tiefere Stimme
!!!ODT: 1864/
!!NB: Vocal melody and text only encoded.
**kern	**silbe
*clefG2	*
*k[f#]	*
*M2/2	*
*MM[moderato]	*
!! tempo indication: In gehender Bewegung
=1-	=1-
2r	.
{2b	{So
=2	=2
2g	stehn
2e	wir,
=3	=3
4cc	ich
4b	und
4a	mei-
4e	-ne
=4	=4
2g	Wei-
4f#}	-de,}
4r	.
=5	=5
{2dd	{so
4cc	lei-
4b	-der
=6	=6
4a	mit
4g	ein-
4f#	-an-
4g	-der
=7	=7
1a	bei-
=8	=8
2d}	-de:}
2r	.
=9	=9
{2a	{Nie
4b	kann
4cc	ich
=10	=10
4dd	ihr
4b	was
4g	tun
4dd	zu
=11	=11
2dd	Lie-
4cc#}	-be,}
4r	.
=12	=12
{2e	{nie
4f#	kann
4g	sie
=13	=13
4a	mir
4a#	was
4b	tun
4cc#	zu
=14	=14
(2ee	Lei-
[2dd	|
=15	=15
2dd]	|
2cc#)	|
=16	=16
2b}	-de.}
2r	.
=18	=18
{2f#	{Sie
4g	kra2nk-
4a	-et
=19	=19
4b}	es,}
{4b	{wenn
4a#	ich
4b	die
=20	=20
(4dd	Sti-
4cc)	-rn
4a	ihr
4g	mit
=21	=21
4f#	ei-
4a#	-nem
4cc#	Di-
4dd#	-a-
=22	=22
2.ee	-dem
4cc#	be-
=23	=23
2b	-klei-
4a#}	-de;}
4r	.
=26	=26
{2f#	{Ich
4g#	dan-
4an	-ke
=27	=27
4b	selbt,
4a#	wie
4b	fu2r
4b#	ein
=28	=28
(4dd#	La2-
4cc#)	|
4an	-cheln
4g#	der
=29	=29
2f#}	Huld,}
{6f#	{fu2r
6gn	ih-
6a	-re
=30	=30
2.b	Zorn-
4g	-be-
=31	=31
2g	-schei-
4f#}	-de.}
4r	.
=35	=35
2r	.
{2b	{So
=36	=36
2g	stehn
2e	wir,
=37	=37
4cc	ich
4b	und
4a	mei-
4e	-ne
=38	=38
2g	Wei-
4f#}	-de,}
4r	.
=40	=40
{2dd	{so
4cc	lei-
4b	-der
=41	=41
2.a	mit
4a#	ein-
=42	=42
2.b	-an-
4dd	-der
=43	=43
2dd	bei-
4g#}	-de,}
{4cc	{so
=44	=44
4b	lei-
4a}	-der}
2r	.
=45	=45
{2.a	{mit
4a#	ein-
=46	=46
2.a#	-an-
4b	-der
=47	=47
1b	bei-
=48	=48
2g}	-de.}
2r	.
*-	*-
